X: 40183
T: Time Will End
R: reel
M: 4/4
K: Gmajor
|EF|:G2 gf|e3 d|ed Bd|A2 GA|B2 AG|EG DE|GA cB|A2 GF|
G2 gf|e3 d|ed Bd|A2 GA|B2 AG|EG DE|GA BA|G3 d|
G2 gf|e3 d|ed Bd|A2 GA|B2 AG|EG DE|GA cB|A2 GF|
G2 gf|e3 d|ed Bd|A2 GA|B2 AG|FG FE|DC B,C|DE FG|
E2 ED|E3 D|EF GA|BA GF|E2 ED|EF GA|A4-|A BAG|
E2 ED|E3 D|EF GA|BG gf|(3efg dc|BG BA|G3 A|BA GF|
E2 ED|E3 D|EF GA|BA GF|E2 ED|EF GA|A4-|AB AG|
E2 DE|GA BG|gf ed|cBAD|EF GA|BA GF|G4-|G2 F2:|

